www/assets/icons/gesture.svg

<svg width="24" height="24" viewBox="0 0 24 24" xmlns="http://www.w3.org/2000/svg" fill='currentColor'><path d="M4.67004 6.90001C5.37004 6.19001 6.07004 5.55001 6.38004 5.68001C6.88004 5.88001 6.38004 6.71001 6.08004 7.20001C5.83004 7.62001 3.22004 11.09 3.22004 13.51C3.22004 14.79 3.70004 15.85 4.56004 16.49C5.31004 17.05 6.30004 17.22 7.20004 16.95C8.27004 16.64 9.15004 15.55 10.26 14.18C11.47 12.69 13.09 10.74 14.34 10.74C15.97 10.74 15.99 11.75 16.1 12.53C12.32 13.17 10.72 16.2 10.72 17.9C10.72 19.6 12.16 20.99 13.93 20.99C15.56 20.99 18.22 19.66 18.62 14.89H21.08V12.39H18.61C18.46 10.74 17.52 8.19001 14.58 8.19001C12.33 8.19001 10.4 10.1 9.64004 11.03C9.06004 11.76 7.58004 13.51 7.35004 13.75C7.10004 14.05 6.67004 14.59 6.24004 14.59C5.79004 14.59 5.52004 13.76 5.88004 12.67C6.23004 11.58 7.28004 9.81001 7.73004 9.15001C8.51004 8.01001 9.03004 7.23001 9.03004 5.87001C9.03004 3.70001 7.39004 3.01001 6.52004 3.01001C5.20004 3.01001 4.05004 4.01001 3.80004 4.26001C3.44004 4.62001 3.14004 4.92001 2.92004 5.19001L4.67004 6.90001ZM13.96 18.56C13.65 18.56 13.22 18.3 13.22 17.84C13.22 17.24 13.95 15.64 16.09 15.08C15.79 17.77 14.66 18.56 13.96 18.56Z"/></svg>

<svg xmlns="http://www.w3.org/2000/svg" width="24" height="24" viewBox="0 0 24 24" fill='currentColor'><path d="M4.67 6.9c.7-.71 1.4-1.35 1.71-1.22.5.2 0 1.03-.3 1.52-.25.42-2.86 3.89-2.86 6.31 0 1.28.48 2.34 1.34 2.98.75.56 1.74.73 2.64.46 1.07-.31 1.95-1.4 3.06-2.77 1.21-1.49 2.83-3.44 4.08-3.44 1.63 0 1.65 1.01 1.76 1.79-3.78.64-5.38 3.67-5.38 5.37s1.44 3.09 3.21 3.09c1.63 0 4.29-1.33 4.69-6.1h2.46v-2.5h-2.47c-.15-1.65-1.09-4.2-4.03-4.2-2.25 0-4.18 1.91-4.94 2.84-.58.73-2.06 2.48-2.29 2.72-.25.3-.68.84-1.11.84-.45 0-.72-.83-.36-1.92.35-1.09 1.4-2.86 1.85-3.52.78-1.14 1.3-1.92 1.3-3.28 0-2.17-1.64-2.86-2.51-2.86-1.32 0-2.47 1-2.72 1.25-.36.36-.66.66-.88.93zm9.29 11.66c-.31 0-.74-.26-.74-.72 0-.6.73-2.2 2.87-2.76-.3 2.69-1.43 3.48-2.13 3.48"/></svg>
